X: 41952
T: Walking Stick, The
R: mazurka
M: 3/4
K: Dmajor
P: C
|:(3AGE|F2 D>F A>d|f2 a>f g<e|B2 g>e (3fed|e>c A>^G (3AGE|
F>E (3DEF A>d|f2 f>a ^g>a|b<g A>c e<c|1 d2 d2:|2 d2 d2- d3/2||

